X:22
T:Reel 22
M:4/4
K:Dmaj
L:1/8
AG|FGAB AFdF|FGAF EFEG|FGBc dcdB|AFDF E2D2|FAAc dcdB|AFDF EDB,C|FEFG ABcd|cedc dBAG|FGAF AFdF|AFdF EFG2|FGAB AFdF|AGFE D2D2|FGAB AFdF|AGFD ECEG|FABc defg|afge fdd2|FAdA FAdA|GFEF GEAG|FAdA BAGF|GAFD E2D2|FAdA FAdA|GFeF gbag|faec dABG|FABc defd|
